X: 4504
T: Bonny Ship The Diamond, The
R: hornpipe
M: 4/4
K: Dmajor
d|:e2 e2 B2 c2|d3 c B2 dd|e2 e2 B2 c2|d4 z2 dd|
e2 e2 B2 c2|d3 c B2 G2|A2 B2 AG F2|1 E4 z2 dd:|2 E4 E2 F2||
G4 F2 F2|E4 B2 c2|e4 B2 c2|e4 z2 ef|
g2 e2 f2 d2|e2 B2 B3 B|B2 A2 G2 F2|E8|

